src/assets/IconShieldCheck.svg

<svg width="19" height="22" viewBox="0 0 19 22" fill="none" xmlns="http://www.w3.org/2000/svg">
<path d="M18.014 5.51568C18.003 4.93732 17.9925 4.39096 17.9925 3.86239C17.9925 3.44829 17.6569 3.11258 17.2427 3.11258C14.036 3.11258 11.5945 2.19101 9.55943 0.212309C9.26831 -0.0708197 8.80502 -0.0707197 8.514 0.212309C6.47911 2.19101 4.03802 3.11258 0.831527 3.11258C0.417431 3.11258 0.0817157 3.44829 0.0817157 3.86239C0.0817157 4.39106 0.0713183 4.93762 0.0602211 5.51607C-0.0425531 10.8983 -0.183317 18.2696 8.79113 21.3803C8.87071 21.4079 8.95368 21.4217 9.03666 21.4217C9.11964 21.4217 9.20272 21.4079 9.2822 21.3803C18.2573 18.2695 18.1168 10.898 18.014 5.51568ZM9.03676 19.8762C1.34 17.0802 1.45637 10.9552 1.55964 5.54467C1.56584 5.21995 1.57184 4.90523 1.57604 4.59671C4.57928 4.46994 6.98088 3.55987 9.03676 1.76892C11.0928 3.55987 13.4948 4.47004 16.4983 4.59671C16.5025 4.90513 16.5085 5.21965 16.5147 5.54417C16.6179 10.9549 16.7341 17.0801 9.03676 19.8762Z" fill="#8FA4B5"/>
<path d="M11.619 8.106L8.00005 11.7248L6.45573 10.1805C6.16291 9.88775 5.68813 9.88775 5.3954 10.1805C5.10257 10.4734 5.10257 10.9481 5.3954 11.2409L7.46988 13.3154C7.61624 13.4618 7.80819 13.5349 8.00005 13.5349C8.1919 13.5349 8.38385 13.4618 8.53021 13.3154L12.6793 9.16643C12.9722 8.87361 12.9722 8.39882 12.6794 8.1061C12.3866 7.81327 11.9119 7.81317 11.619 8.106Z" fill="#8FA4B5"/>
</svg>

<svg width="19" height="22" fill="none" xmlns="http://www.w3.org/2000/svg"><path d="M18.014 5.516c-.011-.579-.021-1.125-.021-1.654a.75.75 0 00-.75-.75c-3.207 0-5.648-.921-7.684-2.9a.75.75 0 00-1.045 0c-2.035 1.979-4.476 2.9-7.682 2.9a.75.75 0 00-.75.75c0 .53-.01 1.076-.022 1.654-.103 5.382-.243 12.754 8.731 15.864a.75.75 0 00.491 0c8.975-3.11 8.835-10.482 8.732-15.864zm-8.977 14.36C1.34 17.08 1.457 10.956 1.56 5.545c.006-.325.012-.64.016-.948 3.003-.127 5.405-1.037 7.46-2.828 2.057 1.79 4.459 2.701 7.462 2.828.005.308.01.623.017.947.103 5.41.22 11.536-7.478 14.332z" fill="#8FA4B5"/><path d="M11.619 8.106L8 11.725 6.456 10.18a.75.75 0 00-1.06 1.06l2.074 2.074a.747.747 0 001.06 0l4.15-4.149a.75.75 0 10-1.061-1.06z" fill="#8FA4B5"/></svg>
